!! 00000] TT[WS
!!!OTL: Yuo tiedao
!!!ARE: Asia, China, Shanxi Yuanping
!! Ethnic Group: Han
!! WII, 65 (1)
!!!SCT: J0493
!!!YEM: Copyright 1995, estate of Helmut Schaffrath.
**kern
*ICvox
*Ivox
*M2/4
*k[f#]
*G:
{8dd
16ee
16dd
16ee
16dd
16b
16a
=1
16a
16g
16a
16b
16dd
16ee
16dd
16a
=2
16a
16dd
16dd
16g
16a
16g
16f#
16e
=3
16e
16d
16g
16d
4d}
=4
{8g
16a
16b
8g
16f#
16e
=5
8d
8dd
8cc
16b
16a
=6
16dd
16ee
16dd
16g
16a
16g
16f#
16e
=7
8d
16e
16g
4d}
==
!!!AGN: Xiaodiao. Qingge, Sichun
!!!ONB: ESAC (Essen Associative Code) Database: CHINA
!!!AMT: simple duple
!!!AIN: vox
!!!EED: Helmut Schaffrath
!!!EEV: 1.0
*-
